Include/imtgui/Resources/Icons/ProductionOverview.svg

<svg height="471pt" viewBox="-10 -11 471.2 471" width="471pt" xmlns="http://www.w3.org/2000/svg"><path d="m456 384.101562c0 39.761719-32.234375 72-72 72s-72-32.238281-72-72c0-39.765624 32.234375-72 72-72s72 32.234376 72 72zm0 0"/><path d="m376 234.84375h-17.945312l17.945312 17.945312zm0 0"/><path d="m409.945312 234.84375h-17.945312v17.945312zm0 0"/><path d="m226.742188 54.15625v17.945312h17.945312zm0 0"/><path d="m226.742188 88.101562v17.941407l17.945312-17.941407zm0 0"/><path d="m309.457031 80.101562 74.542969 60.863282 74.542969-60.863282-74.542969-60.867187zm0 0"/><path d="m8 312.101562h144v144h-144zm0 0"/><path d="m80 192.101562-37.257812 37.253907h29.257812v66.746093h16v-66.746093h29.257812zm0 0"/><path d="m152 80.101562c0 39.761719-32.234375 72-72 72s-72-32.238281-72-72c0-39.765624 32.234375-72 72-72s72 32.234376 72 72zm0 0"/><path d="m226.742188 54.15625 17.945312 17.945312h-17.945312v16h17.945312l-17.945312 17.941407v11.3125l37.257812-37.253907-37.257812-37.257812zm0 0"/><path d="m376 252.789062-17.945312-17.945312h-11.3125l37.257812 37.257812 37.257812-37.257812h-11.3125l-17.945312 17.945312v-17.945312h-16zm0 0"/><path d="m376 160.101562h16v74.742188h-16zm0 0"/><path d="m168 72.101562h58.742188v16h-58.742188zm0 0"/></svg>

<?xml version="1.0" encoding="UTF-8" standalone="no"?>
<svg
   xmlns:dc="http://purl.org/dc/elements/1.1/"
   xmlns:cc="http://creativecommons.org/ns#"
   xmlns:rdf="http://www.w3.org/1999/02/22-rdf-syntax-ns#"
   xmlns:svg="http://www.w3.org/2000/svg"
   xmlns="http://www.w3.org/2000/svg"
   xmlns:sodipodi="http://sodipodi.sourceforge.net/DTD/sodipodi-0.dtd"
   xmlns:inkscape="http://www.inkscape.org/namespaces/inkscape"
   height="512pt"
   viewBox="-10 -11 512.21741 512"
   width="512pt"
   version="1.1"
   id="svg28"
   sodipodi:docname="ProductionOverview.svg"
   inkscape:version="0.92.2 (5c3e80d, 2017-08-06)">
  <metadata
     id="metadata34">
    <rdf:RDF>
      <cc:Work
         rdf:about="">
        <dc:format>image/svg+xml</dc:format>
        <dc:type
           rdf:resource="http://purl.org/dc/dcmitype/StillImage" />
        <dc:title></dc:title>
      </cc:Work>
    </rdf:RDF>
  </metadata>
  <defs
     id="defs32" />
  <sodipodi:namedview
     pagecolor="#ffffff"
     bordercolor="#666666"
     borderopacity="1"
     objecttolerance="10"
     gridtolerance="10"
     guidetolerance="10"
     inkscape:pageopacity="0"
     inkscape:pageshadow="2"
     inkscape:window-width="2560"
     inkscape:window-height="1388"
     id="namedview30"
     showgrid="false"
     inkscape:zoom="0.37579618"
     inkscape:cx="-57.211864"
     inkscape:cy="314"
     inkscape:window-x="-8"
     inkscape:window-y="-8"
     inkscape:window-maximized="1"
     inkscape:current-layer="svg28" />
  <g
     id="g854"
     transform="translate(12.837212,12.898431)"
     style="fill:#335777;fill-opacity:1">
    <path
       id="path2"
       d="m 456,384.10156 c 0,39.76172 -32.23438,72 -72,72 -39.76563,0 -72,-32.23828 -72,-72 0,-39.76562 32.23437,-72 72,-72 39.76562,0 72,32.23438 72,72 z m 0,0"
       inkscape:connector-curvature="0"
       style="fill:#335777;fill-opacity:1" />
    <path
       id="path4"
       d="M 376,234.84375 H 358.05469 L 376,252.78906 Z m 0,0"
       inkscape:connector-curvature="0"
       style="fill:#335777;fill-opacity:1" />
    <path
       id="path6"
       d="M 409.94531,234.84375 H 392 v 17.94531 z m 0,0"
       inkscape:connector-curvature="0"
       style="fill:#335777;fill-opacity:1" />
    <path
       id="path8"
       d="m 226.74219,54.15625 v 17.945312 h 17.94531 z m 0,0"
       inkscape:connector-curvature="0"
       style="fill:#335777;fill-opacity:1" />
    <path
       id="path10"
       d="M 226.74219,88.101562 V 106.04297 L 244.6875,88.101562 Z m 0,0"
       inkscape:connector-curvature="0"
       style="fill:#335777;fill-opacity:1" />
    <path
       id="path12"
       d="M 309.45703,80.101562 384,140.96484 458.54297,80.101562 384,19.234375 Z m 0,0"
       inkscape:connector-curvature="0"
       style="fill:#335777;fill-opacity:1" />
    <path
       id="path14"
       d="m 8,312.10156 h 144 v 144 H 8 Z m 0,0"
       inkscape:connector-curvature="0"
       style="fill:#335777;fill-opacity:1" />
    <path
       id="path16"
       d="M 80,192.10156 42.742188,229.35547 H 72 v 66.74609 h 16 v -66.74609 h 29.25781 z m 0,0"
       inkscape:connector-curvature="0"
       style="fill:#335777;fill-opacity:1" />
    <path
       id="path18"
       d="m 152,80.101562 c 0,39.761718 -32.23437,71.999998 -72,71.999998 -39.765625,0 -72,-32.23828 -72,-71.999998 0,-39.765624 32.234375,-72 72,-72 39.76563,0 72,32.234376 72,72 z m 0,0"
       inkscape:connector-curvature="0"
       style="fill:#335777;fill-opacity:1" />
    <path
       id="path20"
       d="m 226.74219,54.15625 17.94531,17.945312 h -17.94531 v 16 h 17.94531 l -17.94531,17.941408 v 11.3125 L 264,80.101562 226.74219,42.84375 Z m 0,0"
       inkscape:connector-curvature="0"
       style="fill:#335777;fill-opacity:1" />
    <path
       id="path22"
       d="m 376,252.78906 -17.94531,-17.94531 h -11.3125 L 384,272.10156 421.25781,234.84375 h -11.3125 L 392,252.78906 v -17.94531 h -16 z m 0,0"
       inkscape:connector-curvature="0"
       style="fill:#335777;fill-opacity:1" />
    <path
       id="path24"
       d="m 376,160.10156 h 16 v 74.74219 h -16 z m 0,0"
       inkscape:connector-curvature="0"
       style="fill:#335777;fill-opacity:1" />
    <path
       id="path26"
       d="m 168,72.101562 h 58.74219 v 16 H 168 Z m 0,0"
       inkscape:connector-curvature="0"
       style="fill:#335777;fill-opacity:1" />
  </g>
</svg>
